22x22/actions/auto-type.svg

<svg xmlns="http://www.w3.org/2000/svg" viewBox="0 0 22 22">
  <defs id="defs3051">
    <style type="text/css" id="current-color-scheme">
      .ColorScheme-Text {
        color:#5d656b;
      }
      </style>
  </defs>
 <path 
     style="fill:currentColor;fill-opacity:1;stroke:none" 
	 d="M 5 3 L 5 4 L 7 4 L 7 18 L 5 18 L 5 19 L 10 19 L 10 18 L 8 18 L 8 4 L 10 4 L 10 3 L 5 3 z M 12.765625 5 L 12 5.6054688 L 16.707031 11 L 12 16.394531 L 12.765625 17 L 18 11 L 12.765625 5 z "
	 class="ColorScheme-Text"
     />
</svg>

<svg xmlns="http://www.w3.org/2000/svg" viewBox="0 0 22 22"><path style="fill:currentColor;fill-opacity:1;stroke:none;color:#5d656b" d="M5 3v1h2v14H5v1h5v-1H8V4h2V3H5zm7.766 2L12 5.605 16.707 11 12 16.395l.766.605L18 11l-5.234-6z"/></svg>
